T: Kitty's Rambles
M: 6/8
L: 1/8
K: Dmix
K: Dmaj
|:"1"fed cBA | ~d3 efg | fed cBA | FAF GEA |
|~D3 ~d3 | ~d3 efg | fed cBG |Adc d2 :|
|: A|dfa dfa | dfa ~a3 | Ace Ace | Ace gfe |
"2"def ~g3 | ~a3 ~g3 | fed cBG | Adc d2 :|
P:Variations
"1" FDD ~d3 | "2"def gbg
